digitransit-component/packages/digitransit-component-icon/src/assets/subway.svg

<?xml version="1.0" encoding="UTF-8"?>
<svg viewBox="0 0 24 24" version="1.1" xmlns="http://www.w3.org/2000/svg" xmlns:xlink="http://www.w3.org/1999/xlink">
    <title>icon-train</title>
    <g stroke="none" stroke-width="1" fill="none" fill-rule="evenodd">
        <g>
            <g>
                <g fill="#CA4000">
                    <path d="M-8.45070423e-06,3.0096507 C-8.45070423e-06,1.39269296 1.34745634,0.045228169 2.96441408,0.045228169 L20.9304423,0.045228169 C22.6074,0.045228169 23.9547803,1.39269296 23.9547803,3.0096507 L23.9547803,20.9757634 C23.9547803,22.6525521 22.6074,24.0000169 20.9304423,24.0000169 L2.96441408,24.0000169 C1.34745634,24.0000169 -8.45070423e-06,22.6525521 -8.45070423e-06,20.9757634 L-8.45070423e-06,3.0096507 Z" id="Fill-1"></path>
                </g>
                <path d="M17.2609854,9.10639685 L17.2609854,8.60241099 C17.2609854,8.57270569 17.3213118,8.54308408 17.381553,8.54308408 L17.381553,20.64 L21.12,20.64 L21.12,2.88 L15.6028191,2.88 L12.1356279,15.0066212 L12.0753867,15.8367796 L11.9849397,15.8367796 L11.8944927,15.0066212 L8.42738667,2.88 L2.88,2.88 L2.88,20.64 L6.67877334,20.64 L6.67877334,8.54308408 C6.70889397,8.54308408 6.76913523,8.57270569 6.76913523,8.60241099 L6.76913523,9.10639685 L10.1458794,20.64 L13.8542057,20.64 L17.2609854,9.10639685 Z" id="Fill-4" fill="#FFFFFF"></path>
            </g>
        </g>
    </g>
</svg>

<svg xmlns="http://www.w3.org/2000/svg" viewBox="0 0 24 24">
 <title>icon-train</title>
 <g fill="none" fill-rule="evenodd">
  <path fill="#ca4000" d="M0 3.01C0 1.393 1.347.045 2.964.045H20.93c1.677 0 3.025 1.348 3.025 2.965v17.966A3.016 3.016 0 0 1 20.93 24H2.964C1.347 24 0 22.653 0 20.976z"/>
  <path fill="#fff" d="M17.261 9.106v-.504c0-.03.06-.059.12-.059V20.64h3.739V2.88h-5.517l-3.467 12.127-.06.83h-.091l-.09-.83L8.426 2.88H2.88v17.76h3.799V8.543c.03 0 .09.03.09.06v.503l3.377 11.534h3.708z"/>
 </g>
</svg>
